X:5
T:Courante (CLXXXIII)
T:Entree Courante
C:Michael Praetorius, Terpsichore, 1612
M:6/4
L:1/8 
K:C major
G2 | "C"c4G2 c4d2 | "C"e3fg2 e2c2g2 | "F"f4e2 "G"d4c2 | "G"B3cd2 B2G2g2 | "F"f4e2 "G"d4c2 | "G"B3cd2 B2G2g2 | 
"Dm"d4e2 f4e2 | "G"d4c2 B4G2 | "F"A2B2c2 "G"B2c2d2 | "C"c6 c4 :: \
c2 | "G"B2G2d2 B2G2d2 | "G"B2G2d2 B2G2d2 | 
"C"e2f2g2 "D"^f2g2a2 | "G"g6 g4g2 | "C"e2c2g2 e2c2g2 | "F"f6 f4e2 | "Dm"d4c2 "F"c4B2 | 
"C"c12 | "F"c12 | "Dm"d12 | "G"d12 | "Em"e12 | "Am"e12 | "F"f12 | "Bb"f12 | "G"g12 | "C"g12 | "C"e3dc2 "G"B2c2B2 | "C"c6 c4 :| 

